X: 225
T: Donald Blue
M: 4/4
L: 1/8
R: reel
K:Dmaj
"D"dBAF A2 FA|dBAF "A"E2"D"2 D2|"D"dBAF A2 FA|1"G" B2 BA B2 AB:|2"G" B2 BA B2 dB|
"D"ABde ~f3 d|"G"~g3 e "D"fedB|ABde fedc|1"G" B2 BA B2 dB:|2"G" B2 BA B2 AB|


